public/favicon.svg

<svg xmlns="http://www.w3.org/2000/svg" xmlns:xlink="http://www.w3.org/1999/xlink" width="143" height="145" fill="none"><defs><path id="c" fill-rule="evenodd" d="M112.075 117.733V55.2159l11.807 10.3275c.347.3039.8.4554 1.258.4211.459-.0343.884-.2515 1.184-.6039.301-.3524.45-.8111.416-1.2752-.034-.4641-.248-.8955-.596-1.1995L73.0347 16.4234l-.038-.0303c-.0356-.028-.0725-.0531-.1099-.0784-.014-.0095-.028-.019-.042-.0288-.0516-.0357-.0896-.0604-.1357-.0851-.0491-.0262-.0999-.0491-.1519-.0687-.0122-.005-.0242-.01-.036-.0148-.0405-.0169-.0793-.0329-.1213-.0457-.04-.0122-.0785-.0198-.1167-.0274-.0136-.0027-.0271-.0054-.0407-.0083-.0136-.0029-.0284-.0066-.0438-.0105-.0429-.0106-.0906-.0225-.1325-.0225h-.1601c-.0542-.0039-.1086-.0039-.1627 0-.054.0049-.1075.0141-.1601.0275-.0569.0076-.1131.0196-.1682.0357l-.1492.0577c-.0554.021-.1098.0448-.1628.0715-.0334.0179-.0655.0387-.0971.0593-.012.0078-.0239.0156-.0358.0231-.0434.0275-.1058.0715-.1546.1127-.0138.0075-.0265.0168-.038.0275L17.66 62.8859c-.3351.3079-.5381.7364-.5657 1.1938-.0275.4575.1226.9078.4183 1.2547.2957.3469.7135.5629 1.1643.602.4508.039.8988-.102 1.2484-.393l11.8063-10.3302v59.0078h-46.2215V94.9291c5.62372 8.0219 12.63643 8.6589 14.695484 8.6589.320116 0 .520865-.016.577835-.022.457601-.039.881161-.26 1.177511-.615.29636-.356.44122-.816.40273-1.279-.0385-.464-.25719-.893-.60798-1.193-.35079-.3-.804941-.447-1.262538-.408-.387937.03-9.494962.549-14.983042-12.3365V75.6372C-8.86618 83.659-1.85347 84.2938.205584 84.2938c.320116 0 .520865-.0137.577835-.0192.448431-.0512.859501-.2774 1.145841-.6308.28634-.3533.42539-.8058.38759-1.2613-.03779-.4555-.24946-.8782-.59-1.1781-.34055-.3-.783138-.4536-1.233708-.4282-.387937.0303-9.494962.5497-14.983042-12.3336V56.3509c5.62372 8.019 12.63643 8.6566 14.695484 8.6566.320116 0 .520865-.0165.577835-.022.457601-.039.881161-.2605 1.177511-.6159.29636-.3553.44122-.8154.40273-1.2789-.0385-.4636-.25719-.8926-.60798-1.1929-.35079-.3002-.804941-.4469-1.262538-.4079-.387937.0302-9.494962.5496-14.983042-12.3364V37.0618c5.62372 8.0218 12.63643 8.6566 14.695484 8.6566.320116 0 .520865 0 .577835-.0193.448431-.0511.859501-.2774 1.145841-.6307.28634-.3533.42539-.8058.38759-1.2614-.03779-.4555-.24946-.8781-.59-1.1781-.34055-.2999-.783138-.4535-1.233708-.4281-.387937.0302-9.494962.5496-14.983042-12.3336v-.0385c.0092-.2363-.0287-.472-.1116-.693-.0829-.2211-.209-.4229-.3708-.5934-.1617-.1704-.3558-.306-.5706-.3987-.2147-.0926-.4457-.1404-.6792-.1404-.2334 0-.4644.0478-.6792.1404-.2147.0927-.4088.2283-.5705.3987-.1618.1705-.2879.3723-.3708.5934-.0829.221-.1208.4567-.1116.693v.0385c-5.4827 12.864-14.5653 12.3666-14.9804 12.3336-.4294.0072-.841.1757-1.1548.4728-.3139.2971-.5076.7016-.5438 1.1352-.0361.4336.0879.8654.3481 1.2116.2602.3462.6381.5822 1.0603.6623.0158 0 .0441.0016.0841.0039.0974.0056.2642.0153.491.0153 2.059 0 9.0718-.6376 14.6955-8.6566v12.0918c-5.4827 12.8639-14.5653 12.3665-14.9804 12.3363-.4576-.039-.9117.1077-1.2625.408-.3508.3002-.5695.7292-.608 1.1928-.0385.4635.1064.9236.4028 1.2789.2963.3554.7199.5769 1.1775.6159.0158 0 .0441.0019.0841.0045.0974.0065.2642.0175.491.0175 2.059 0 9.0718-.6376 14.6955-8.6566v12.0918c-5.4827 12.8612-14.5653 12.3665-14.9804 12.3335-.4505-.0253-.8931.1283-1.2337.4282-.3405.2999-.5522.7226-.59 1.1781-.0378.4555.1013.908.3876 1.2614.2864.3533.6974.5796 1.1459.6307.0158 0 .0441.0017.0841.004.0974.0056.2642.0152.491.0152 2.059 0 9.0718-.6375 14.6955-8.6565v12.0917c-5.4827 12.8635-14.5653 12.3665-14.9804 12.3365-.4576-.039-.9117.108-1.2625.408s-.5695.729-.608 1.193c-.0385.463.1064.923.4028 1.279.2963.355.7199.576 1.1775.615.0158 0 .0441.002.0841.005.0974.006.2642.017.491.017 2.059 0 9.0718-.637 14.6955-8.6589v19.2919h-42.3123c-.2276 0-.4531.045-.6634.134-.2103.088-.4014.217-.5624.38-.1609.163-.2886.357-.3757.57-.0872.213-.132.441-.132.672 0 .231.0448.459.132.672.0871.213.2148.407.3757.57.161.163.3521.292.5624.38.2103.089.4358.134.6634.134h42.3204v9.827c.0177.454.208.883.5309 1.197.3229.314.7534.49 1.2013.49.4479 0 .8784-.176 1.2013-.49.3229-.314.5131-.743.5308-1.197v-9.805h46.2134v9.827c.0177.454.2079.883.5308 1.197.3229.314.7534.49 1.2013.49.4479 0 .8784-.176 1.2013-.49.3229-.314.5132-.743.5309-1.197v-9.827h46.5307c.4598 0 .9007-.185 1.2258-.514.3251-.33.5077-.776.5077-1.242 0-.466-.1826-.912-.5077-1.242-.3251-.329-.766-.514-1.2258-.514H35.1959V52.553c.0008-.1173-.0111-.2343-.0353-.349l36.7428-32.1531L108.638 52.215c-.024.1147-.036.2317-.035.349v61.657H98.4595c-.2277 0-.4531.045-.6634.134-.2103.088-.4014.217-.5624.38-.161.163-.2887.357-.3758.57-.0871.213-.1319.441-.1319.672 0 .231.0448.459.1319.672.0871.213.2148.407.3758.57.161.163.3521.292.5624.38.2103.089.4357.134.6634.134h10.1515v9.827c.018.454.208.883.531 1.197.323.314.753.49 1.201.49.448 0 .878-.176 1.201-.49.323-.314.514-.743.531-1.197v-9.827Z" clip-rule="evenodd"/></defs><path fill="#035" d="M0 0h143v145H0z"/><g clip-path="url(#a)"><g fill="#fff" clip-path="url(#b)"><use xlink:href="#c" fill-rule="evenodd" clip-rule="evenodd"/><use xlink:href="#c" fill-rule="evenodd" clip-rule="evenodd"/><path d="M50.933 96.2166v-3.8984l25.1019-33.5649v-.3594H52.0072V53.749h30.5011v4.0643l-24.6497 33.399v.3594h25.5542v4.6449H50.933Z"/><path d="M60.3702 96.2166v-3.8984l25.1019-33.5649v-.3594H61.4444V53.749h30.5011v4.0643l-24.6496 33.399v.3594h25.5542v4.6449H60.3702Z"/></g></g><defs><clipPath id="a"><path fill="#fff" d="M0 0h111v113H0z" transform="translate(16 16)"/></clipPath><clipPath id="b"><path fill="#fff" d="M0 0h188.745v113.247H0z" transform="translate(-62 16)"/></clipPath></defs></svg>

<svg width="143" height="145" viewBox="0 0 143 145" fill="none" xmlns="http://www.w3.org/2000/svg">
<rect width="143" height="145" fill="#003355"/>
<g clip-path="url(#clip0_153_28248)">
<g clip-path="url(#clip1_153_28248)">
<path fill-rule="evenodd" clip-rule="evenodd" d="M112.075 117.733V114.221V55.2159L123.882 65.5434C124.229 65.8473 124.682 65.9988 125.14 65.9645C125.599 65.9302 126.024 65.713 126.324 65.3606C126.625 65.0082 126.774 64.5495 126.74 64.0854C126.706 63.6213 126.492 63.1899 126.144 62.8859L73.0347 16.4234L72.9967 16.3931C72.9611 16.3651 72.9242 16.34 72.8868 16.3147C72.8728 16.3052 72.8588 16.2957 72.8448 16.2859C72.7932 16.2502 72.7552 16.2255 72.7091 16.2008C72.66 16.1746 72.6092 16.1517 72.5572 16.1321C72.545 16.1271 72.533 16.1221 72.5212 16.1173C72.4807 16.1004 72.4419 16.0844 72.3999 16.0716C72.3599 16.0594 72.3214 16.0518 72.2832 16.0442C72.2696 16.0415 72.2561 16.0388 72.2425 16.0359C72.2289 16.033 72.2141 16.0293 72.1987 16.0254C72.1558 16.0148 72.1081 16.0029 72.0662 16.0029H71.9061C71.8519 15.999 71.7975 15.999 71.7434 16.0029C71.6894 16.0078 71.6359 16.017 71.5833 16.0304C71.5264 16.038 71.4702 16.05 71.4151 16.0661L71.2659 16.1238C71.2105 16.1448 71.1561 16.1686 71.1031 16.1953C71.0697 16.2132 71.0376 16.234 71.006 16.2546C70.994 16.2624 70.9821 16.2702 70.9702 16.2777C70.9268 16.3052 70.8644 16.3492 70.8156 16.3904C70.8018 16.3979 70.7891 16.4072 70.7776 16.4179L17.66 62.8859C17.3249 63.1938 17.1219 63.6223 17.0943 64.0797C17.0668 64.5372 17.2169 64.9875 17.5126 65.3344C17.8083 65.6813 18.2261 65.8973 18.6769 65.9364C19.1277 65.9754 19.5757 65.8344 19.9253 65.5434L31.7316 55.2132V114.221H-14.4899V94.9291C-8.86618 102.951 -1.85347 103.588 0.205584 103.588C0.5257 103.588 0.726449 103.572 0.783419 103.566C1.24102 103.527 1.66458 103.306 1.96093 102.951C2.25729 102.595 2.40215 102.135 2.36366 101.672C2.32516 101.208 2.10647 100.779 1.75568 100.479C1.40489 100.179 0.950739 100.032 0.493142 100.071C0.105205 100.101 -9.00182 100.62 -14.4899 87.7345V75.6372C-8.86618 83.659 -1.85347 84.2938 0.205584 84.2938C0.5257 84.2938 0.726449 84.2801 0.783419 84.2746C1.23185 84.2234 1.64292 83.9972 1.92926 83.6438C2.2156 83.2905 2.35465 82.838 2.31685 82.3825C2.27906 81.927 2.06739 81.5043 1.72685 81.2044C1.3863 80.9044 0.943712 80.7508 0.493142 80.7762C0.105205 80.8065 -9.00182 81.3259 -14.4899 68.4426V56.3509C-8.86618 64.3699 -1.85347 65.0075 0.205584 65.0075C0.5257 65.0075 0.726449 64.991 0.783419 64.9855C1.24102 64.9465 1.66458 64.725 1.96093 64.3696C2.25729 64.0143 2.40215 63.5542 2.36366 63.0907C2.32516 62.6271 2.10647 62.1981 1.75568 61.8978C1.40489 61.5976 0.950739 61.4509 0.493142 61.4899C0.105205 61.5201 -9.00182 62.0395 -14.4899 49.1535V37.0618C-8.86618 45.0836 -1.85347 45.7184 0.205584 45.7184C0.5257 45.7184 0.726449 45.7184 0.783419 45.6991C1.23185 45.648 1.64292 45.4217 1.92926 45.0684C2.2156 44.7151 2.35465 44.2626 2.31685 43.807C2.27906 43.3515 2.06739 42.9289 1.72685 42.6289C1.3863 42.329 0.943712 42.1754 0.493142 42.2008C0.105205 42.231 -9.00182 42.7504 -14.4899 29.8672V29.8287C-14.4807 29.5924 -14.5186 29.3567 -14.6015 29.1357C-14.6844 28.9146 -14.8105 28.7128 -14.9723 28.5423C-15.134 28.3719 -15.3281 28.2363 -15.5429 28.1436C-15.7576 28.051 -15.9886 28.0032 -16.2221 28.0032C-16.4555 28.0032 -16.6865 28.051 -16.9013 28.1436C-17.116 28.2363 -17.3101 28.3719 -17.4718 28.5423C-17.6336 28.7128 -17.7597 28.9146 -17.8426 29.1357C-17.9255 29.3567 -17.9634 29.5924 -17.9542 29.8287V29.8672C-23.4369 42.7312 -32.5195 42.2338 -32.9346 42.2008C-33.364 42.208 -33.7756 42.3765 -34.0894 42.6736C-34.4033 42.9707 -34.597 43.3752 -34.6332 43.8088C-34.6693 44.2424 -34.5453 44.6742 -34.2851 45.0204C-34.0249 45.3666 -33.647 45.6026 -33.2248 45.6827C-33.209 45.6827 -33.1807 45.6843 -33.1407 45.6866C-33.0433 45.6922 -32.8765 45.7019 -32.6497 45.7019C-30.5907 45.7019 -23.5779 45.0643 -17.9542 37.0453V49.1371C-23.4369 62.001 -32.5195 61.5036 -32.9346 61.4734C-33.3922 61.4344 -33.8463 61.5811 -34.1971 61.8814C-34.5479 62.1816 -34.7666 62.6106 -34.8051 63.0742C-34.8436 63.5377 -34.6987 63.9978 -34.4023 64.3531C-34.106 64.7085 -33.6824 64.93 -33.2248 64.969C-33.209 64.969 -33.1807 64.9709 -33.1407 64.9735C-33.0433 64.98 -32.8765 64.991 -32.6497 64.991C-30.5907 64.991 -23.5779 64.3534 -17.9542 56.3344V68.4262C-23.4369 81.2874 -32.5195 80.7927 -32.9346 80.7597C-33.3851 80.7344 -33.8277 80.888 -34.1683 81.1879C-34.5088 81.4878 -34.7205 81.9105 -34.7583 82.366C-34.7961 82.8215 -34.657 83.274 -34.3707 83.6274C-34.0843 83.9807 -33.6733 84.207 -33.2248 84.2581C-33.209 84.2581 -33.1807 84.2598 -33.1407 84.2621C-33.0433 84.2677 -32.8765 84.2773 -32.6497 84.2773C-30.5907 84.2773 -23.5779 83.6398 -17.9542 75.6208V87.7125C-23.4369 100.576 -32.5195 100.079 -32.9346 100.049C-33.3922 100.01 -33.8463 100.157 -34.1971 100.457C-34.5479 100.757 -34.7666 101.186 -34.8051 101.65C-34.8436 102.113 -34.6987 102.573 -34.4023 102.929C-34.106 103.284 -33.6824 103.505 -33.2248 103.544C-33.209 103.544 -33.1807 103.546 -33.1407 103.549C-33.0433 103.555 -32.8765 103.566 -32.6497 103.566C-30.5907 103.566 -23.5779 102.929 -17.9542 94.9071V114.199H-60.2665C-60.4941 114.199 -60.7196 114.244 -60.9299 114.333C-61.1402 114.421 -61.3313 114.55 -61.4923 114.713C-61.6532 114.876 -61.7809 115.07 -61.868 115.283C-61.9552 115.496 -62 115.724 -62 115.955C-62 116.186 -61.9552 116.414 -61.868 116.627C-61.7809 116.84 -61.6532 117.034 -61.4923 117.197C-61.3313 117.36 -61.1402 117.489 -60.9299 117.577C-60.7196 117.666 -60.4941 117.711 -60.2665 117.711H-17.9461V127.538C-17.9284 127.992 -17.7381 128.421 -17.4152 128.735C-17.0923 129.049 -16.6618 129.225 -16.2139 129.225C-15.766 129.225 -15.3355 129.049 -15.0126 128.735C-14.6897 128.421 -14.4995 127.992 -14.4818 127.538V117.733H31.7316V127.56C31.7493 128.014 31.9395 128.443 32.2624 128.757C32.5853 129.071 33.0158 129.247 33.4637 129.247C33.9116 129.247 34.3421 129.071 34.665 128.757C34.9879 128.443 35.1782 128.014 35.1959 127.56V117.733H81.7266C82.1864 117.733 82.6273 117.548 82.9524 117.219C83.2775 116.889 83.4601 116.443 83.4601 115.977C83.4601 115.511 83.2775 115.065 82.9524 114.735C82.6273 114.406 82.1864 114.221 81.7266 114.221H35.1959V52.553C35.1967 52.4357 35.1848 52.3187 35.1606 52.204L71.9034 20.0509L108.638 52.215C108.614 52.3297 108.602 52.4467 108.603 52.564V114.221H98.4595C98.2318 114.221 98.0064 114.266 97.7961 114.355C97.5858 114.443 97.3947 114.572 97.2337 114.735C97.0727 114.898 96.945 115.092 96.8579 115.305C96.7708 115.518 96.726 115.746 96.726 115.977C96.726 116.208 96.7708 116.436 96.8579 116.649C96.945 116.862 97.0727 117.056 97.2337 117.219C97.3947 117.382 97.5858 117.511 97.7961 117.599C98.0064 117.688 98.2318 117.733 98.4595 117.733H108.611V127.56C108.629 128.014 108.819 128.443 109.142 128.757C109.465 129.071 109.895 129.247 110.343 129.247C110.791 129.247 111.221 129.071 111.544 128.757C111.867 128.443 112.058 128.014 112.075 127.56V117.733Z" fill="white"/>
<path fill-rule="evenodd" clip-rule="evenodd" d="M112.075 117.733V114.221V55.2159L123.882 65.5434C124.229 65.8473 124.682 65.9988 125.14 65.9645C125.599 65.9302 126.024 65.713 126.324 65.3606C126.625 65.0082 126.774 64.5495 126.74 64.0854C126.706 63.6213 126.492 63.1899 126.144 62.8859L73.0347 16.4234L72.9967 16.3931C72.9611 16.3651 72.9242 16.34 72.8868 16.3147C72.8728 16.3052 72.8588 16.2957 72.8448 16.2859C72.7932 16.2502 72.7552 16.2255 72.7091 16.2008C72.66 16.1746 72.6092 16.1517 72.5572 16.1321C72.545 16.1271 72.533 16.1221 72.5212 16.1173C72.4807 16.1004 72.4419 16.0844 72.3999 16.0716C72.3599 16.0594 72.3214 16.0518 72.2832 16.0442C72.2696 16.0415 72.2561 16.0388 72.2425 16.0359C72.2289 16.033 72.2141 16.0293 72.1987 16.0254C72.1558 16.0148 72.1081 16.0029 72.0662 16.0029H71.9061C71.8519 15.999 71.7975 15.999 71.7434 16.0029C71.6894 16.0078 71.6359 16.017 71.5833 16.0304C71.5264 16.038 71.4702 16.05 71.4151 16.0661L71.2659 16.1238C71.2105 16.1448 71.1561 16.1686 71.1031 16.1953C71.0697 16.2132 71.0376 16.234 71.006 16.2546C70.994 16.2624 70.9821 16.2702 70.9702 16.2777C70.9268 16.3052 70.8644 16.3492 70.8156 16.3904C70.8018 16.3979 70.7891 16.4072 70.7776 16.4179L17.66 62.8859C17.3249 63.1938 17.1219 63.6223 17.0943 64.0797C17.0668 64.5372 17.2169 64.9875 17.5126 65.3344C17.8083 65.6813 18.2261 65.8973 18.6769 65.9364C19.1277 65.9754 19.5757 65.8344 19.9253 65.5434L31.7316 55.2132V114.221H-14.4899V94.9291C-8.86618 102.951 -1.85347 103.588 0.205584 103.588C0.5257 103.588 0.726449 103.572 0.783419 103.566C1.24102 103.527 1.66458 103.306 1.96093 102.951C2.25729 102.595 2.40215 102.135 2.36366 101.672C2.32516 101.208 2.10647 100.779 1.75568 100.479C1.40489 100.179 0.950739 100.032 0.493142 100.071C0.105205 100.101 -9.00182 100.62 -14.4899 87.7345V75.6372C-8.86618 83.659 -1.85347 84.2938 0.205584 84.2938C0.5257 84.2938 0.726449 84.2801 0.783419 84.2746C1.23185 84.2234 1.64292 83.9972 1.92926 83.6438C2.2156 83.2905 2.35465 82.838 2.31685 82.3825C2.27906 81.927 2.06739 81.5043 1.72685 81.2044C1.3863 80.9044 0.943712 80.7508 0.493142 80.7762C0.105205 80.8065 -9.00182 81.3259 -14.4899 68.4426V56.3509C-8.86618 64.3699 -1.85347 65.0075 0.205584 65.0075C0.5257 65.0075 0.726449 64.991 0.783419 64.9855C1.24102 64.9465 1.66458 64.725 1.96093 64.3696C2.25729 64.0143 2.40215 63.5542 2.36366 63.0907C2.32516 62.6271 2.10647 62.1981 1.75568 61.8978C1.40489 61.5976 0.950739 61.4509 0.493142 61.4899C0.105205 61.5201 -9.00182 62.0395 -14.4899 49.1535V37.0618C-8.86618 45.0836 -1.85347 45.7184 0.205584 45.7184C0.5257 45.7184 0.726449 45.7184 0.783419 45.6991C1.23185 45.648 1.64292 45.4217 1.92926 45.0684C2.2156 44.7151 2.35465 44.2626 2.31685 43.807C2.27906 43.3515 2.06739 42.9289 1.72685 42.6289C1.3863 42.329 0.943712 42.1754 0.493142 42.2008C0.105205 42.231 -9.00182 42.7504 -14.4899 29.8672V29.8287C-14.4807 29.5924 -14.5186 29.3567 -14.6015 29.1357C-14.6844 28.9146 -14.8105 28.7128 -14.9723 28.5423C-15.134 28.3719 -15.3281 28.2363 -15.5429 28.1436C-15.7576 28.051 -15.9886 28.0032 -16.2221 28.0032C-16.4555 28.0032 -16.6865 28.051 -16.9013 28.1436C-17.116 28.2363 -17.3101 28.3719 -17.4718 28.5423C-17.6336 28.7128 -17.7597 28.9146 -17.8426 29.1357C-17.9255 29.3567 -17.9634 29.5924 -17.9542 29.8287V29.8672C-23.4369 42.7312 -32.5195 42.2338 -32.9346 42.2008C-33.364 42.208 -33.7756 42.3765 -34.0894 42.6736C-34.4033 42.9707 -34.597 43.3752 -34.6332 43.8088C-34.6693 44.2424 -34.5453 44.6742 -34.2851 45.0204C-34.0249 45.3666 -33.647 45.6026 -33.2248 45.6827C-33.209 45.6827 -33.1807 45.6843 -33.1407 45.6866C-33.0433 45.6922 -32.8765 45.7019 -32.6497 45.7019C-30.5907 45.7019 -23.5779 45.0643 -17.9542 37.0453V49.1371C-23.4369 62.001 -32.5195 61.5036 -32.9346 61.4734C-33.3922 61.4344 -33.8463 61.5811 -34.1971 61.8814C-34.5479 62.1816 -34.7666 62.6106 -34.8051 63.0742C-34.8436 63.5377 -34.6987 63.9978 -34.4023 64.3531C-34.106 64.7085 -33.6824 64.93 -33.2248 64.969C-33.209 64.969 -33.1807 64.9709 -33.1407 64.9735C-33.0433 64.98 -32.8765 64.991 -32.6497 64.991C-30.5907 64.991 -23.5779 64.3534 -17.9542 56.3344V68.4262C-23.4369 81.2874 -32.5195 80.7927 -32.9346 80.7597C-33.3851 80.7344 -33.8277 80.888 -34.1683 81.1879C-34.5088 81.4878 -34.7205 81.9105 -34.7583 82.366C-34.7961 82.8215 -34.657 83.274 -34.3707 83.6274C-34.0843 83.9807 -33.6733 84.207 -33.2248 84.2581C-33.209 84.2581 -33.1807 84.2598 -33.1407 84.2621C-33.0433 84.2677 -32.8765 84.2773 -32.6497 84.2773C-30.5907 84.2773 -23.5779 83.6398 -17.9542 75.6208V87.7125C-23.4369 100.576 -32.5195 100.079 -32.9346 100.049C-33.3922 100.01 -33.8463 100.157 -34.1971 100.457C-34.5479 100.757 -34.7666 101.186 -34.8051 101.65C-34.8436 102.113 -34.6987 102.573 -34.4023 102.929C-34.106 103.284 -33.6824 103.505 -33.2248 103.544C-33.209 103.544 -33.1807 103.546 -33.1407 103.549C-33.0433 103.555 -32.8765 103.566 -32.6497 103.566C-30.5907 103.566 -23.5779 102.929 -17.9542 94.9071V114.199H-60.2665C-60.4941 114.199 -60.7196 114.244 -60.9299 114.333C-61.1402 114.421 -61.3313 114.55 -61.4923 114.713C-61.6532 114.876 -61.7809 115.07 -61.868 115.283C-61.9552 115.496 -62 115.724 -62 115.955C-62 116.186 -61.9552 116.414 -61.868 116.627C-61.7809 116.84 -61.6532 117.034 -61.4923 117.197C-61.3313 117.36 -61.1402 117.489 -60.9299 117.577C-60.7196 117.666 -60.4941 117.711 -60.2665 117.711H-17.9461V127.538C-17.9284 127.992 -17.7381 128.421 -17.4152 128.735C-17.0923 129.049 -16.6618 129.225 -16.2139 129.225C-15.766 129.225 -15.3355 129.049 -15.0126 128.735C-14.6897 128.421 -14.4995 127.992 -14.4818 127.538V117.733H31.7316V127.56C31.7493 128.014 31.9395 128.443 32.2624 128.757C32.5853 129.071 33.0158 129.247 33.4637 129.247C33.9116 129.247 34.3421 129.071 34.665 128.757C34.9879 128.443 35.1782 128.014 35.1959 127.56V117.733H81.7266C82.1864 117.733 82.6273 117.548 82.9524 117.219C83.2775 116.889 83.4601 116.443 83.4601 115.977C83.4601 115.511 83.2775 115.065 82.9524 114.735C82.6273 114.406 82.1864 114.221 81.7266 114.221H35.1959V52.553C35.1967 52.4357 35.1848 52.3187 35.1606 52.204L71.9034 20.0509L108.638 52.215C108.614 52.3297 108.602 52.4467 108.603 52.564V114.221H98.4595C98.2318 114.221 98.0064 114.266 97.7961 114.355C97.5858 114.443 97.3947 114.572 97.2337 114.735C97.0727 114.898 96.945 115.092 96.8579 115.305C96.7708 115.518 96.726 115.746 96.726 115.977C96.726 116.208 96.7708 116.436 96.8579 116.649C96.945 116.862 97.0727 117.056 97.2337 117.219C97.3947 117.382 97.5858 117.511 97.7961 117.599C98.0064 117.688 98.2318 117.733 98.4595 117.733H108.611V127.56C108.629 128.014 108.819 128.443 109.142 128.757C109.465 129.071 109.895 129.247 110.343 129.247C110.791 129.247 111.221 129.071 111.544 128.757C111.867 128.443 112.058 128.014 112.075 127.56V117.733Z" fill="white"/>
<path d="M50.933 96.2166V92.3182L76.0349 58.7533V58.3939H52.0072V53.749H82.5083V57.8133L57.8586 91.2123V91.5717H83.4128V96.2166H50.933Z" fill="white"/>
<path d="M60.3702 96.2166V92.3182L85.4721 58.7533V58.3939H61.4444V53.749H91.9455V57.8133L67.2959 91.2123V91.5717H92.8501V96.2166H60.3702Z" fill="white"/>
</g>
</g>
<defs>
<clipPath id="clip0_153_28248">
<rect width="111" height="113" fill="white" transform="translate(16 16)"/>
</clipPath>
<clipPath id="clip1_153_28248">
<rect width="188.745" height="113.247" fill="white" transform="translate(-62 16)"/>
</clipPath>
</defs>
</svg>
